!!! OTL: Literature18
!!! Chapter: 5
!!! Section: I
!!! Page: 348
!!! Mode: 
!!! Encoder: DJB
**kern
*staff1
*I"Piano
=1-
*clefF4
*k[f#c#]
*D:
*M2/4
8D\L
8D\J
4D\
=2
8E\L
8E\J
4E\
=3
8F#\L
8G\J
8A\L
8D\J
=4
8C#/L
8D/J
8E/L
8C#/J
=5
8D/L
8D/J
4D\
=6
8E\L
8E\J
4E\
=7
8F#\L
8G\J
8A\L
8D\J
=8
8E\L
8E\J
4D\
==
*-
